svg/material-icons/text_decrease/materialiconsround/20px.svg

<svg xmlns="http://www.w3.org/2000/svg" width="20" height="20" viewBox="0 0 20 20"><path d="M12 10c0-.41.34-.75.75-.75h4.5c.41 0 .75.34.75.75s-.34.75-.75.75h-4.5c-.41 0-.75-.34-.75-.75zm-9 5a.8.8 0 0 0 .76-.53l.72-2.02h4.04l.71 2.02c.12.32.43.53.77.53.56 0 .95-.55.75-1.08L7.72 5.84C7.51 5.33 7.03 5 6.49 5s-1.02.33-1.21.84l-3.03 8.08c-.2.52.19 1.08.75 1.08zm3.06-6.98.39-1.16h.08l.39 1.16L7.98 11H5l1.06-2.98z"/></svg>

<svg xmlns="http://www.w3.org/2000/svg" enable-background="new 0 0 20 20" height="20" viewBox="0 0 20 20" width="20"><rect fill="none" height="20" width="20"/><path d="M12,10c0-0.41,0.34-0.75,0.75-0.75h4.5C17.66,9.25,18,9.59,18,10s-0.34,0.75-0.75,0.75h-4.5C12.34,10.75,12,10.41,12,10z M3,15c0.34,0,0.65-0.21,0.76-0.53l0.72-2.02h4.04l0.71,2.02C9.35,14.79,9.66,15,10,15c0.56,0,0.95-0.55,0.75-1.08L7.72,5.84 C7.51,5.33,7.03,5,6.49,5S5.47,5.33,5.28,5.84l-3.03,8.08C2.05,14.44,2.44,15,3,15z M6.06,8.02l0.39-1.16h0.08l0.39,1.16L7.98,11H5 L6.06,8.02z"/></svg>
